src/assets/javascript.svg

<svg width="65" height="64" viewBox="0 0 65 64" fill="none" xmlns="http://www.w3.org/2000/svg">
<path d="M0.5 0V64H64.5V0H0.5ZM34.7857 49.7143C34.7857 55.9443 31.1057 58.9814 25.7786 58.9814C20.9671 58.9814 18.1743 56.49 16.7571 53.4829L21.6543 50.5186C22.5986 52.1943 23.3157 53.6114 25.3771 53.6114C27.0914 53.6114 28.5 52.8386 28.5 49.8314V29.7143H34.7857V49.7143ZM48.9786 58.8386C43.3943 58.8386 39.7857 56.3186 38.0243 52.8386L42.9286 50C44.2143 52.1057 45.8929 53.5086 48.8571 53.5086C51.3486 53.5086 52.7957 52.4057 52.7957 50.6871C52.7957 48.6257 51.3057 47.8957 48.5557 46.6871L47.0529 46.0414C42.7129 44.1957 39.8357 41.8757 39.8357 36.9771C39.8357 32.4671 43.2714 29.1729 48.6414 29.1729C52.4657 29.1729 55.2129 30.3614 57.1914 33.8414L52.5 36.8571C51.4686 35.01 50.3571 34.2857 48.6343 34.2857C46.8729 34.2857 45.7557 35.4029 45.7557 36.8571C45.7557 38.6614 46.8729 39.3914 49.45 40.5086L50.9529 41.1529C56.0657 43.3443 58.9443 45.5814 58.9443 50.6043C58.9457 56.0186 54.6929 58.8386 48.9786 58.8386Z" fill="#111F4C"/>
</svg>

<svg xmlns="http://www.w3.org/2000/svg" width="65" height="64" fill="none" xmlns:v="https://vecta.io/nano"><path d="M.5 0v64h64V0H.5zm34.286 49.714c0 6.23-3.68 9.267-9.007 9.267-4.812 0-7.604-2.491-9.021-5.498l4.897-2.964c.944 1.676 1.661 3.093 3.723 3.093 1.714 0 3.123-.773 3.123-3.78V29.714h6.286v20zm14.193 9.124c-5.584 0-9.193-2.52-10.954-6L42.929 50c1.286 2.106 2.964 3.509 5.929 3.509 2.491 0 3.939-1.103 3.939-2.822 0-2.061-1.49-2.791-4.24-4l-1.503-.646c-4.34-1.846-7.217-4.166-7.217-9.064 0-4.51 3.436-7.804 8.806-7.804 3.824 0 6.572 1.189 8.55 4.669L52.5 36.857c-1.031-1.847-2.143-2.571-3.866-2.571-1.761 0-2.879 1.117-2.879 2.571 0 1.804 1.117 2.534 3.694 3.651l1.503.644c5.113 2.191 7.991 4.429 7.991 9.451.001 5.414-4.251 8.234-9.966 8.234z" fill="#4a4970"/></svg>
